lib/svgs/state-other.svg

<?xml version="1.0" encoding="UTF-8"?>
<svg width="16px" height="16px" viewBox="0 0 16 16" version="1.1" xmlns="http://www.w3.org/2000/svg" xmlns:xlink="http://www.w3.org/1999/xlink">
    <!-- Generator: sketchtool 51.3 (57544) - http://www.bohemiancoding.com/sketch -->
    <title>community/state-other</title>
    <desc>Created with sketchtool.</desc>
    <defs></defs>
    <g id="Icons" stroke="none" stroke-width="1" fill="none" fill-rule="evenodd">
        <g id="Web" transform="translate(-195.000000, -1136.000000)" fill="#000000">
            <g id="community/state-other" transform="translate(195.000000, 1136.000000)">
                <path d="M8,0 C3.59376,0 0,3.59376 0,8 C0,12.43744 3.59376,16 8,16 C12.40624,16 16,12.43744 16,8 C16,3.59376 12.40624,0 8,0 L8,0 Z M8,1 C4.14454,1 1,4.14454 1,8 C1,11.88276 4.14454,15 8,15 C11.85546,15 15,11.88276 15,8 C15,4.14454 11.85546,1 8,1 L8,1 Z M11.06256,7.34368 C10.68752,7.34368 10.37504,7.65632 10.37504,8 C10.37504,8.37504 10.68752,8.68752 11.06256,8.68752 C11.40624,8.68752 11.71872,8.37504 11.71872,8 C11.71872,7.65632 11.40624,7.34368 11.06256,7.34368 L11.06256,7.34368 Z M8,7.34368 C7.62496,7.34368 7.34368,7.65632 7.34368,8 C7.34368,8.37504 7.62496,8.68752 8,8.68752 C8.37504,8.68752 8.65632,8.37504 8.65632,8 C8.65632,7.65632 8.37504,7.34368 8,7.34368 L8,7.34368 Z M4.93744,7.34368 C4.59376,7.34368 4.28128,7.65632 4.28128,8 C4.28128,8.37504 4.59376,8.68752 4.93744,8.68752 C5.31248,8.68752 5.62496,8.37504 5.62496,8 C5.62496,7.65632 5.31248,7.34368 4.93744,7.34368 L4.93744,7.34368 Z" id="Shape"></path>
            </g>
        </g>
    </g>
</svg>

<svg xmlns="http://www.w3.org/2000/svg" viewBox="0 0 16 16">
    <path d="M8 0a7.995 7.995 0 1 0 0 16A7.995 7.995 0 1 0 8 0zm0 1a6.996 6.996 0 1 0-.008 14.008A6.996 6.996 0 0 0 8 1zm3.063 6.344c-.375 0-.688.312-.688.656 0 .375.313.688.688.688.343 0 .656-.313.656-.688a.682.682 0 0 0-.656-.656zM8 7.344A.66.66 0 0 0 7.344 8c0 .375.281.688.656.688A.667.667 0 0 0 8.656 8 .66.66 0 0 0 8 7.344zm-3.063 0A.682.682 0 0 0 4.281 8c0 .375.313.688.656.688A.694.694 0 0 0 5.625 8c0-.344-.313-.656-.688-.656z"/>
</svg>
